src/img/icons/directions.svg

<svg width="32" height="32" viewBox="0 0 32 32" fill="none" xmlns="http://www.w3.org/2000/svg">
<path d="M12.2873 15.4465H19.039V17.0546C19.039 17.3059 19.1521 17.4778 19.3785 17.5701C19.6045 17.6624 19.8042 17.622 19.9774 17.4488L22.1993 15.2269C22.4028 15.0167 22.5045 14.7715 22.5045 14.4913C22.5045 14.2111 22.4008 13.9679 22.1934 13.7617L19.9774 11.5484C19.8042 11.3754 19.6045 11.3322 19.3785 11.4188C19.1521 11.5054 19.039 11.6784 19.039 11.9377V13.5756H11.5808C11.2509 13.5756 10.9744 13.6873 10.751 13.9106C10.5279 14.1337 10.4164 14.4102 10.4164 14.74V19.1592C10.4164 19.4242 10.5065 19.6465 10.6866 19.8259C10.867 20.0051 11.0904 20.0947 11.3567 20.0947C11.6232 20.0947 11.8449 20.0051 12.0219 19.8259C12.1988 19.6465 12.2873 19.4242 12.2873 19.1592V15.4465ZM16.0019 30C15.7036 30 15.4097 29.9445 15.1204 29.8336C14.8313 29.7224 14.5753 29.5558 14.3525 29.3337L2.66631 17.6475C2.44421 17.4257 2.27757 17.1706 2.16639 16.8822C2.05546 16.5938 2 16.3004 2 16.0019C2 15.7036 2.05546 15.4097 2.16639 15.1204C2.27757 14.8313 2.44421 14.5753 2.66631 14.3525L14.3525 2.66631C14.5743 2.44421 14.8294 2.27757 15.1178 2.16639C15.4062 2.05546 15.6996 2 15.9981 2C16.2964 2 16.5903 2.05546 16.8796 2.16639C17.1687 2.27757 17.4247 2.44421 17.6475 2.66631L29.3337 14.3525C29.5558 14.5743 29.7224 14.8294 29.8336 15.1178C29.9445 15.4062 30 15.6996 30 15.9981C30 16.2964 29.9445 16.5903 29.8336 16.8796C29.7224 17.1687 29.5558 17.4247 29.3337 17.6475L17.6475 29.3337C17.4257 29.5558 17.1706 29.7224 16.8822 29.8336C16.5939 29.9445 16.3004 30 16.0019 30ZM9.82265 22.1773L15.6851 28.0301C15.7709 28.116 15.8759 28.1589 16 28.1589C16.1241 28.1589 16.2291 28.116 16.3149 28.0301L28.0301 16.3149C28.116 16.2291 28.1589 16.1241 28.1589 16C28.1589 15.8759 28.116 15.7709 28.0301 15.6851L16.3149 3.9699C16.2291 3.88404 16.1241 3.8411 16 3.8411C15.8759 3.8411 15.7709 3.88404 15.6851 3.9699L3.9699 15.6851C3.88404 15.7709 3.84111 15.8759 3.84111 16C3.84111 16.1241 3.88404 16.2291 3.9699 16.3149L9.82265 22.1773Z" fill="#131212"/>
</svg>

<svg xmlns="http://www.w3.org/2000/svg" viewBox="0 0 32 32">
  <path fill="currentColor" d="M12.287 15.447h6.752v1.608c0 .25.113.423.34.515a.51.51 0 0 0 .598-.121l2.222-2.222c.204-.21.305-.456.305-.736a.995.995 0 0 0-.31-.73l-2.217-2.213a.522.522 0 0 0-.599-.13c-.226.087-.339.26-.339.52v1.638h-7.458c-.33 0-.607.111-.83.335-.223.223-.335.5-.335.829v4.42c0 .264.09.486.27.666.181.18.404.269.67.269a.912.912 0 0 0 .93-.936v-3.712ZM16.002 30c-.298 0-.592-.055-.882-.166a2.192 2.192 0 0 1-.768-.5L2.666 17.648a2.179 2.179 0 0 1-.5-.766 2.434 2.434 0 0 1-.166-.88c0-.298.055-.592.166-.882.112-.289.278-.545.5-.768L14.353 2.666c.221-.222.476-.388.765-.5.288-.11.582-.166.88-.166.298 0 .592.055.882.166.289.112.545.278.768.5l11.686 11.687c.222.221.388.476.5.765.11.288.166.582.166.88 0 .298-.055.592-.166.882a2.208 2.208 0 0 1-.5.768L17.648 29.334a2.179 2.179 0 0 1-.766.5c-.288.11-.582.166-.88.166Zm-6.18-7.823 5.863 5.853c.086.086.19.129.315.129.124 0 .23-.043.315-.129L28.03 16.315a.428.428 0 0 0 .13-.315.428.428 0 0 0-.129-.315L16.315 3.97A.428.428 0 0 0 16 3.84a.428.428 0 0 0-.315.129L3.97 15.685a.428.428 0 0 0-.13.315c0 .124.043.23.129.315l5.853 5.862Z"/>
</svg>
